Numix/scalable/actions/document-open-recent-symbolic.svg

<?xml version="1.0" encoding="UTF-8" standalone="no"?>
<svg
   xmlns:dc="http://purl.org/dc/elements/1.1/"
   xmlns:cc="http://creativecommons.org/ns#"
   xmlns:rdf="http://www.w3.org/1999/02/22-rdf-syntax-ns#"
   xmlns:svg="http://www.w3.org/2000/svg"
   xmlns="http://www.w3.org/2000/svg"
   xmlns:sodipodi="http://sodipodi.sourceforge.net/DTD/sodipodi-0.dtd"
   xmlns:inkscape="http://www.inkscape.org/namespaces/inkscape"
   width="16"
   viewBox="0 0 16 16"
   height="16"
   id="svg2669"
   version="1.1"
   inkscape:version="0.91 r"
   sodipodi:docname="document-open-recent-symbolic.svg">
  <metadata
     id="metadata2677">
    <rdf:RDF>
      <cc:Work
         rdf:about="">
        <dc:format>image/svg+xml</dc:format>
        <dc:type
           rdf:resource="http://purl.org/dc/dcmitype/StillImage" />
      </cc:Work>
    </rdf:RDF>
  </metadata>
  <defs
     id="defs2675" />
  <sodipodi:namedview
     pagecolor="#ffffff"
     bordercolor="#666666"
     borderopacity="1"
     objecttolerance="10"
     gridtolerance="10"
     guidetolerance="10"
     inkscape:pageopacity="0"
     inkscape:pageshadow="2"
     inkscape:window-width="640"
     inkscape:window-height="480"
     id="namedview2673" />
  <path
     style="fill:#bebebe"
     d="M 1,0 1,5 6,5 4.28125,3.28125 C 5.3038891,2.4783825 6.599253,2 8,2 c 3.313708,0 6,2.6862915 6,6 0,3.313708 -2.686292,6 -6,6 C 4.6862915,14 2,11.313708 2,8 2,7.299289 2.1229842,6.625135 2.34375,6 L 0.25,6 C 0.0862956,6.637743 0,7.31119 0,8 c 0,4.418278 3.581722,8 8,8 4.418278,0 8,-3.581722 8,-8 C 16,3.581722 12.418278,0 8,0 6.043128,0 4.2338051,0.6769384 2.84375,1.84375 L 1,0 z M 7.90625,2.96875 A 1.0001,1.0001 0 0 0 7.78125,3 1.0001,1.0001 0 0 0 7,4 l 0,3.6875 a 1.0001,1.0001 0 0 0 0,0.09375 1.0001,1.0001 0 0 0 0.125,0.75 A 1.0001,1.0001 0 0 0 7.15625,8.5625 1.0001,1.0001 0 0 0 7.1875,8.625 1.0001,1.0001 0 0 0 7.21875,8.65625 1.0001,1.0001 0 0 0 7.25,8.6875 1.0001,1.0001 0 0 0 7.28125,8.71875 1.0001,1.0001 0 0 0 7.3125,8.75 1.0001,1.0001 0 0 0 7.375,8.78125 1.0001,1.0001 0 0 0 7.40625,8.8125 1.0001,1.0001 0 0 0 7.4375,8.84375 1.0001,1.0001 0 0 0 7.5,8.875 1.0001,1.0001 0 0 0 7.625,8.9375 l 2.46875,1.4375 a 1.0077822,1.0077822 0 1 0 1,-1.75 L 9,7.40625 9,4 A 1.0001,1.0001 0 0 0 7.90625,2.96875 z"
     id="path2671" />
</svg>

<svg xmlns="http://www.w3.org/2000/svg" viewBox="0 0 16 16">
 <path d="m 1 0 0 5 5 0 -1.719 -1.719 c 1.023 -0.803 2.318 -1.281 3.719 -1.281 c 3.314 0 6 2.686 6 6 0 3.314 -2.686 6 -6 6 c -3.314 0 -6 -2.686 -6 -6 0 -0.701 0.123 -1.375 0.344 -2 l -2.094 0 c -0.164 0.638 -0.25 1.311 -0.25 2 c 0 4.418 3.582 8 8 8 4.418 0 8 -3.582 8 -8 c 0 -4.418 -3.582 -8 -8 -8 -1.957 0 -3.766 0.677 -5.156 1.844 l -1.844 -1.844 z m 6.906 2.969 a 1 1 0 0 0 -0.125 0.031 1 1 0 0 0 -0.781 1 l 0 3.688 a 1 1 0 0 0 0 0.094 1 1 0 0 0 0.125 0.75 a 1 1 0 0 0 0.031 0.031 1 1 0 0 0 0.031 0.063 1 1 0 0 0 0.031 0.031 1 1 0 0 0 0.031 0.031 1 1 0 0 0 0.031 0.031 1 1 0 0 0 0.031 0.031 1 1 0 0 0 0.063 0.031 1 1 0 0 0 0.031 0.031 1 1 0 0 0 0.031 0.031 1 1 0 0 0 0.063 0.031 1 1 0 0 0 0.125 0.063 l 2.469 1.438 a 1.01 1.01 0 1 0 1 -1.75 l -2.094 -1.219 0 -3.406 a 1 1 0 0 0 -1.094 -1.031 z" style="fill:#bebebe"/>
</svg>
